; generated by Slic3r 1.1.7 on 2015-06-03 at 17:35:45

; perimeters extrusion width = 0.50mm
; infill extrusion width = 0.52mm
; solid infill extrusion width = 0.52mm
; top infill extrusion width = 0.52mm

G21 ; set units to millimeters
M107
M190 S65 ; wait for bed temperature to be reached
M104 S205 ; set temperature
G28 ; home all axes
G1 Z5 F5000 ; lift nozzle

M109 S205 ; wait for temperature to be reached
G90 ; use absolute coordinates
G92 E0
M82 ; use absolute distances for extrusion
G1 F1800.000 E-1.00000
G92 E0
G1 Z0.500 F7800.000
G1 X82.150 Y78.404 F7800.000
G1 E1.00000 F1800.000
G1 X83.912 Y76.865 E1.14774 F1080.000
G1 X86.087 Y76.004 E1.29548
G1 X87.500 Y75.857 E1.38516
G1 X112.500 Y75.857 E2.96380
G1 X114.806 Y76.254 E3.11154
G1 X116.846 Y77.400 E3.25928 F1080.000
G1 X118.385 Y79.162 E3.40702
G1 X119.246 Y81.337 E3.55477
G1 X119.393 Y82.750 E3.64445
G1 X119.393 Y117.250 E5.82297
G1 X118.996 Y119.556 E5.97071
G1 X117.850 Y121.596 E6.11845
G1 X116.088 Y123.135 E6.26619
G1 X113.913 Y123.996 E6.41393
G1 X112.500 Y124.143 E6.50361
G1 X87.500 Y124.143 E8.08225
G1 X85.194 Y123.746 E8.22999
G1 X83.154 Y122.600 E8.37773
G1 X81.615 Y120.838 E8.52547
G1 X80.754 Y118.663 E8.67321
G1 X80.607 Y117.250 E8.76289
G1 X80.607 Y82.750 E10.94142
G1 X81.004 Y80.444 E11.08916
G1 X82.113 Y78.470 E11.23216
G1 F1800.000 E10.23216
G92 E0
G1 X93.978 Y109.365 F7800.000
G1 E1.00000 F1800.000
G1 X93.593 Y109.799 E1.03658 F540.000
G1 X93.117 Y110.128 E1.07316
G1 X92.575 Y110.333 E1.10973
G1 X92.000 Y110.403 E1.14632
G1 X91.425 Y110.333 E1.18290
G1 X90.883 Y110.128 E1.21947
G1 X90.407 Y109.799 E1.25605
G1 X90.022 Y109.365 E1.29263
G1 X89.753 Y108.852 E1.32921
G1 X89.615 Y108.290 E1.36579
G1 X89.615 Y107.710 E1.40237
G1 X89.753 Y107.148 E1.43894
G1 X90.022 Y106.635 E1.47553
G1 X90.407 Y106.201 E1.51210
G1 X90.883 Y105.872 E1.54868
G1 X91.425 Y105.667 E1.58526
G1 X92.000 Y105.597 E1.62184
G1 X92.383 Y105.644 E1.64622
G1 X92.575 Y105.667 E1.65842 F540.000
G1 X93.117 Y105.872 E1.69500
G1 X93.593 Y106.201 E1.73158
G1 X93.978 Y106.635 E1.76816
G1 X94.247 Y107.148 E1.80474
G1 X94.385 Y107.710 E1.84132
G1 X94.385 Y108.290 E1.87789
G1 X94.247 Y108.852 E1.91448
G1 X94.012 Y109.299 E1.94632
G1 X93.237 Y108.854 F7800.000
G1 X92.997 Y109.126 E1.96921 F378.000
G1 X92.699 Y109.331 E1.99210
G1 X92.360 Y109.460 E2.01499
G1 X92.000 Y109.504 E2.03788
G1 X91.640 Y109.460 E2.06077
G1 X91.301 Y109.331 E2.08366
G1 X91.003 Y109.126 E2.10655
G1 X90.763 Y108.854 E2.12944
G1 X90.594 Y108.533 E2.15233
G1 X90.507 Y108.181 E2.17522
G1 X90.507 Y107.819 E2.19811
G1 X90.594 Y107.467 E2.22100
G1 X90.763 Y107.146 E2.24389
G1 X91.003 Y106.874 E2.26678
G1 X91.301 Y106.669 E2.28967
G1 X91.640 Y106.540 E2.31256
G1 X91.916 Y106.507 E2.33009
G1 X92.000 Y106.496 E2.33545 F378.000
G1 X92.360 Y106.540 E2.35834
G1 X92.699 Y106.669 E2.38123
G1 X92.997 Y106.874 E2.40412
G1 X93.237 Y107.146 E2.42701
G1 X93.406 Y107.467 E2.44990
G1 X93.493 Y107.819 E2.47279
G1 X93.493 Y108.181 E2.49568
G1 X93.406 Y108.533 E2.51857
G1 X93.272 Y108.788 E2.53672
G1 F1800.000 E1.53672
G92 E0
G1 X91.891 Y106.425 F7800.000
G1 X92.000 Y94.403 F7800.000
G1 E1.00000 F1800.000
G1 X91.425 Y94.333 E1.03658 F540.000
G1 X90.883 Y94.128 E1.07315
G1 X90.407 Y93.799 E1.10974
G1 X90.022 Y93.365 E1.14631
G1 X89.753 Y92.852 E1.18289
G1 X89.615 Y92.290 E1.21947
G1 X89.615 Y91.710 E1.25605
G1 X89.753 Y91.148 E1.29263
G1 X90.022 Y90.635 E1.32921
G1 X90.407 Y90.201 E1.36579
G1 X90.883 Y89.872 E1.40237
G1 X91.425 Y89.667 E1.43895
G1 X92.000 Y89.597 E1.47552
G1 X92.383 Y89.644 E1.49990
G1 X92.575 Y89.667 E1.51210 F540.000
G1 X93.117 Y89.872 E1.54868
G1 X93.593 Y90.201 E1.58526
G1 X93.978 Y90.635 E1.62184
G1 X94.247 Y91.148 E1.65842
G1 X94.385 Y91.710 E1.69500
G1 X94.385 Y92.290 E1.73158
G1 X94.247 Y92.852 E1.76816
G1 X94.067 Y93.194 E1.79254
G1 X93.978 Y93.365 E1.80474
G1 X93.593 Y93.799 E1.84132
G1 X93.117 Y94.128 E1.87790
G1 X92.575 Y94.333 E1.91447
G1 X92.074 Y94.394 E1.94632
G1 X92.000 Y93.504 F7800.000
G1 X91.640 Y93.460 E1.96921 F378.000
G1 X91.301 Y93.331 E1.99210
G1 X91.003 Y93.126 E2.01499
G1 X90.763 Y92.854 E2.03788
G1 X90.594 Y92.533 E2.06077
G1 X90.507 Y92.181 E2.08366
G1 X90.507 Y91.819 E2.10655
G1 X90.594 Y91.467 E2.12944
G1 X90.763 Y91.146 E2.15233
G1 X91.003 Y90.874 E2.17522
G1 X91.301 Y90.669 E2.19811
G1 X91.640 Y90.540 E2.22100
G1 X91.916 Y90.507 E2.23853
G1 X92.000 Y90.496 E2.24389 F378.000
G1 X92.360 Y90.540 E2.26678
G1 X92.699 Y90.669 E2.28967
G1 X92.997 Y90.874 E2.31256
G1 X93.237 Y91.146 E2.33545
G1 X93.406 Y91.467 E2.35834
G1 X93.493 Y91.819 E2.38123
G1 X93.493 Y92.181 E2.40412
G1 X93.426 Y92.451 E2.42165
G1 X93.406 Y92.533 E2.42701
G1 X93.237 Y92.854 E2.44990
G1 X92.997 Y93.126 E2.47279
G1 X92.699 Y93.331 E2.49568
G1 X92.360 Y93.460 E2.51857
G1 X92.074 Y93.495 E2.53672
G1 F1800.000 E1.53672
G92 E0
G1 X91.905 Y90.422 F7800.000
G1 X98.150 Y93.607 F7800.000
G1 E1.00000 F1800.000
G1 X97.753 Y92.852 E1.05386 F540.000
G1 X97.615 Y92.290 E1.09044
G1 X97.615 Y91.710 E1.12701
G1 X97.753 Y91.148 E1.16359
G1 X98.022 Y90.635 E1.20017
G1 X98.407 Y90.201 E1.23675
G1 X98.883 Y89.872 E1.27333
G1 X99.425 Y89.667 E1.30991
G1 X100.000 Y89.597 E1.34649
G1 X100.575 Y89.667 E1.38307
G1 X101.117 Y89.872 E1.41965
G1 X101.593 Y90.201 E1.45623
G1 X101.978 Y90.635 E1.49281
G1 X102.247 Y91.148 E1.52939
G1 X102.385 Y91.710 E1.56597
G1 X102.385 Y92.290 E1.60254
G1 X102.247 Y92.852 E1.63912
G1 X101.850 Y93.607 E1.69298
G1 X104.393 Y93.607 E1.85351
G1 X104.393 Y96.855 E2.05860
G1 X104.781 Y97.500 E2.10612
G1 X105.047 Y98.093 E2.14714
G1 X105.239 Y98.713 E2.18815
G1 X105.291 Y98.993 E2.20616
G1 X105.794 Y99.070 E2.23832
G1 X106.022 Y98.635 E2.26935
G1 X106.407 Y98.201 E2.30593
G1 X106.883 Y97.872 E2.34251
G1 X107.425 Y97.667 E2.37908
G1 X108.000 Y97.597 E2.41566
G1 X108.575 Y97.667 E2.45224
G1 X109.117 Y97.872 E2.48882
G1 X109.593 Y98.201 E2.52540
G1 X109.978 Y98.635 E2.56198
G1 X110.247 Y99.148 E2.59856
G1 X110.385 Y99.710 E2.63514
G1 X110.385 Y100.290 E2.67172
G1 X110.293 Y100.664 E2.69610
G1 X110.247 Y100.852 E2.70830
G1 X109.978 Y101.365 E2.74488
G1 X109.593 Y101.799 E2.78146
G1 X109.117 Y102.128 E2.81804
G1 X108.575 Y102.333 E2.85461
G1 X108.000 Y102.403 E2.89119
G1 X107.425 Y102.333 E2.92777
G1 X106.883 Y102.128 E2.96435
G1 X106.407 Y101.799 E3.00093
G1 X106.022 Y101.365 E3.03751
G1 X105.794 Y100.930 E3.06854
G1 X105.291 Y101.007 E3.10069
G1 X105.239 Y101.287 E3.11870
G1 X105.047 Y101.908 E3.15972
G1 X104.781 Y102.500 E3.20073
G1 X104.393 Y103.145 E3.24826
G1 X104.393 Y106.393 E3.45334
G1 X101.850 Y106.393 E3.61387
G1 X102.247 Y107.148 E3.66773
G1 X102.385 Y107.710 E3.70431
G1 X102.385 Y108.290 E3.74089
G1 X102.247 Y108.852 E3.77747
G1 X101.978 Y109.365 E3.81405
G1 X101.593 Y109.799 E3.85063
G1 X101.117 Y110.128 E3.88721
G1 X100.575 Y110.333 E3.92378
G1 X100.000 Y110.403 E3.96037
G1 X99.425 Y110.333 E3.99695
G1 X98.883 Y110.128 E4.03352
G1 X98.407 Y109.799 E4.07010
G1 X98.022 Y109.365 E4.10668
G1 X97.753 Y108.852 E4.14326
G1 X97.615 Y108.290 E4.17984
G1 X97.615 Y107.710 E4.21642
G1 X97.753 Y107.148 E4.25299
G1 X98.150 Y106.393 E4.30685
G1 X95.607 Y106.393 E4.46739
G1 X95.607 Y103.145 E4.67247
G1 X95.219 Y102.500 E4.72000
G1 X94.953 Y101.907 E4.76101
G1 X94.761 Y101.287 E4.80203
G1 X94.709 Y101.007 E4.82004
G1 X94.206 Y100.930 E4.85219
G1 X93.978 Y101.365 E4.88322
G1 X93.593 Y101.799 E4.91980
G1 X93.117 Y102.128 E4.95638
G1 X92.575 Y102.333 E4.99296
G1 X92.192 Y102.380 E5.01734
G1 X92.000 Y102.403 E5.02954
G1 X91.425 Y102.333 E5.06612
G1 X90.883 Y102.128 E5.10269
G1 X90.407 Y101.799 E5.13928
G1 X90.022 Y101.365 E5.17585
G1 X89.753 Y100.852 E5.21243
G1 X89.615 Y100.290 E5.24901
G1 X89.615 Y99.710 E5.28559
G1 X89.753 Y99.148 E5.32217
G1 X90.022 Y98.635 E5.35875
G1 X90.407 Y98.201 E5.39533
G1 X90.883 Y97.872 E5.43191
G1 X91.425 Y97.667 E5.46849
G1 X92.000 Y97.597 E5.50507
G1 X92.575 Y97.667 E5.54164
G1 X93.117 Y97.872 E5.57822
G1 X93.593 Y98.201 E5.61480
G1 X93.978 Y98.635 E5.65138
G1 X94.206 Y99.070 E5.68241
G1 X94.709 Y98.993 E5.71457
G1 X94.761 Y98.713 E5.73258
G1 X94.953 Y98.093 E5.77359
G1 X95.219 Y97.500 E5.81461
G1 X95.607 Y96.855 E5.86213
G1 X95.607 Y93.607 E6.06722
G1 X98.075 Y93.607 E6.22301
G1 F1800.000 E5.22301
G92 E0
G1 X106.763 Y99.146 F7800.000
G1 E1.00000 F1800.000
G1 X107.003 Y98.874 E1.02289 F378.000
G1 X107.301 Y98.669 E1.04578
G1 X107.640 Y98.540 E1.06867
G1 X107.916 Y98.507 E1.08620
G1 X108.000 Y98.496 E1.09156 F378.000
G1 X108.360 Y98.540 E1.11445
G1 X108.699 Y98.669 E1.13734
G1 X108.997 Y98.874 E1.16023
G1 X109.237 Y99.146 E1.18312
G1 X109.406 Y99.467 E1.20601
G1 X109.493 Y99.819 E1.22890
G1 X109.493 Y100.181 E1.25179
G1 X109.406 Y100.533 E1.27468
G1 X109.237 Y100.854 E1.29757
G1 X109.053 Y101.062 E1.31510
G1 X108.997 Y101.126 E1.32046
G1 X108.699 Y101.331 E1.34335
G1 X108.360 Y101.460 E1.36624
G1 X108.000 Y101.504 E1.38913
G1 X107.640 Y101.460 E1.41202
G1 X107.301 Y101.331 E1.43491
G1 X107.003 Y101.126 E1.45780
G1 X106.763 Y100.854 E1.48069
G1 X106.594 Y100.533 E1.50358
G1 X106.507 Y100.181 E1.52647
G1 X106.507 Y99.819 E1.54936
G1 X106.594 Y99.467 E1.57225
G1 X106.728 Y99.212 E1.59040
G1 X107.977 Y98.565 F7800.000
G1 X100.997 Y93.126 F7800.000
G1 X100.699 Y93.331 E1.61329 F378.000
G1 X100.360 Y93.460 E1.63618
G1 X100.000 Y93.504 E1.65907
G1 X99.640 Y93.460 E1.68196
G1 X99.301 Y93.331 E1.70485
G1 X99.003 Y93.126 E1.72774
G1 X98.763 Y92.854 E1.75063
G1 X98.594 Y92.533 E1.77352
G1 X98.507 Y92.181 E1.79641
G1 X98.507 Y91.819 E1.81930
G1 X98.594 Y91.467 E1.84219
G1 X98.763 Y91.146 E1.86508
G1 X99.003 Y90.874 E1.88797
G1 X99.301 Y90.669 E1.91086
G1 X99.640 Y90.540 E1.93375
G1 X99.916 Y90.507 E1.95128
G1 X100.000 Y90.496 E1.95664 F378.000
G1 X100.360 Y90.540 E1.97953
G1 X100.699 Y90.669 E2.00242
G1 X100.997 Y90.874 E2.02531
G1 X101.237 Y91.146 E2.04820
G1 X101.406 Y91.467 E2.07109
G1 X101.493 Y91.819 E2.09398
G1 X101.493 Y92.181 E2.11687
G1 X101.406 Y92.533 E2.13976
G1 X101.237 Y92.854 E2.16265
G1 X101.047 Y93.069 E2.18081
G1 F1800.000 E1.18081
G92 E0
G1 X99.997 Y90.529 F7800.000
G1 X103.500 Y94.500 F7800.000
G1 E1.00000 F1800.000
G1 X103.500 Y97.182 E1.16937 F378.000
G1 X103.709 Y97.450 E1.19083
G1 X103.988 Y97.914 E1.22504
G1 X104.210 Y98.409 E1.25926
G1 X104.371 Y98.926 E1.29347
G1 X104.468 Y99.459 E1.32768
G1 X104.501 Y100.000 E1.36190
G1 X104.468 Y100.541 E1.39611
G1 X104.371 Y101.074 E1.43033
G1 X104.210 Y101.591 E1.46454
G1 X103.988 Y102.086 E1.49876
G1 X103.709 Y102.550 E1.53297
G1 X103.500 Y102.818 E1.55442
G1 X103.500 Y105.500 E1.72380
G1 X96.500 Y105.500 E2.16581
G1 X96.500 Y102.818 E2.33519
G1 X96.291 Y102.550 E2.35664
G1 X96.012 Y102.086 E2.39085
G1 X95.790 Y101.591 E2.42507
G1 X95.629 Y101.074 E2.45928
G1 X95.532 Y100.541 E2.49350
G1 X95.499 Y100.000 E2.52771
G1 X95.532 Y99.459 E2.56193
G1 X95.629 Y98.926 E2.59614
G1 X95.790 Y98.409 E2.63035
G1 X96.012 Y97.914 E2.66457
G1 X96.291 Y97.450 E2.69878
G1 X96.500 Y97.182 E2.72024
G1 X96.500 Y94.500 E2.88961
G1 X103.425 Y94.500 E3.32689
G1 X103.250 Y94.933 F7800.000
G1 F1800.000 E2.32689
G92 E0
G1 X93.406 Y99.467 F7800.000
G1 E1.00000 F1800.000
G1 X93.493 Y99.819 E1.02289 F378.000
G1 X93.493 Y100.181 E1.04578
G1 X93.426 Y100.451 E1.06331
G1 X93.406 Y100.533 E1.06867
G1 X93.237 Y100.854 E1.09156
G1 X92.997 Y101.126 E1.11445
G1 X92.699 Y101.331 E1.13734
G1 X92.360 Y101.460 E1.16023
G1 X92.084 Y101.493 E1.17776
G1 X92.000 Y101.504 E1.18312
G1 X91.640 Y101.460 E1.20601
G1 X91.301 Y101.331 E1.22890
G1 X91.003 Y101.126 E1.25179
G1 X90.763 Y100.854 E1.27468
G1 X90.594 Y100.533 E1.29757
G1 X90.507 Y100.181 E1.32046
G1 X90.507 Y99.819 E1.34335
G1 X90.594 Y99.467 E1.36624
G1 X90.763 Y99.146 E1.38913
G1 X91.003 Y98.874 E1.41202
G1 X91.301 Y98.669 E1.43491
G1 X91.640 Y98.540 E1.45780
G1 X91.916 Y98.507 E1.47533
G1 X92.000 Y98.496 E1.48069 F378.000
G1 X92.360 Y98.540 E1.50358
G1 X92.699 Y98.669 E1.52647
G1 X92.997 Y98.874 E1.54936
G1 X93.237 Y99.146 E1.57225
G1 X93.371 Y99.400 E1.59040
G1 X92.000 Y98.512 F7800.000
G1 F1800.000 E0.59040
G92 E0
G1 X99.003 Y106.874 F7800.000
G1 E1.00000 F1800.000
G1 X99.301 Y106.669 E1.02289 F378.000
G1 X99.640 Y106.540 E1.04578
G1 X99.916 Y106.507 E1.06331
G1 X100.000 Y106.496 E1.06867 F378.000
G1 X100.360 Y106.540 E1.09156
G1 X100.699 Y106.669 E1.11445
G1 X100.997 Y106.874 E1.13734
G1 X101.237 Y107.146 E1.16023
G1 X101.406 Y107.467 E1.18312
G1 X101.493 Y107.819 E1.20601
G1 X101.493 Y108.181 E1.22890
G1 X101.406 Y108.533 E1.25179
G1 X101.237 Y108.854 E1.27468
G1 X101.053 Y109.062 E1.29221
G1 X100.997 Y109.126 E1.29757
G1 X100.699 Y109.331 E1.32046
G1 X100.360 Y109.460 E1.34335
G1 X100.084 Y109.493 E1.36088
G1 X100.000 Y109.504 E1.36624
G1 X99.640 Y109.460 E1.38913
G1 X99.301 Y109.331 E1.41202
G1 X99.003 Y109.126 E1.43491
G1 X98.763 Y108.854 E1.45780
G1 X98.594 Y108.533 E1.48069
G1 X98.507 Y108.181 E1.50358
G1 X98.507 Y107.819 E1.52647
G1 X98.594 Y107.467 E1.54936
G1 X98.763 Y107.146 E1.57225
G1 X98.953 Y106.931 E1.59040
G1 X99.939 Y106.425 F7800.000
G1 F1800.000 E0.59040
G92 E0
G1 X106.883 Y94.128 F7800.000
G1 E1.00000 F1800.000
G1 X106.407 Y93.799 E1.03658 F540.000
G1 X106.022 Y93.365 E1.07316
G1 X105.753 Y92.852 E1.10974
G1 X105.615 Y92.290 E1.14632
G1 X105.615 Y91.710 E1.18290
G1 X105.753 Y91.148 E1.21947
G1 X106.022 Y90.635 E1.25605
G1 X106.407 Y90.201 E1.29263
G1 X106.883 Y89.872 E1.32921
G1 X107.425 Y89.667 E1.36579
G1 X108.000 Y89.597 E1.40237
G1 X108.383 Y89.644 E1.42675
G1 X108.575 Y89.667 E1.43895 F540.000
G1 X109.117 Y89.872 E1.47553
G1 X109.593 Y90.201 E1.51211
G1 X109.978 Y90.635 E1.54869
G1 X110.247 Y91.148 E1.58527
G1 X110.385 Y91.710 E1.62185
G1 X110.385 Y92.290 E1.65842
G1 X110.247 Y92.852 E1.69501
G1 X109.978 Y93.365 E1.73159
G1 X109.722 Y93.654 E1.75596
G1 X109.593 Y93.799 E1.76816
G1 X109.117 Y94.128 E1.80474
G1 X108.575 Y94.333 E1.84132
G1 X108.000 Y94.403 E1.87790
G1 X107.425 Y94.333 E1.91448
G1 X106.953 Y94.154 E1.94632
G1 X107.301 Y93.331 F7800.000
G1 X107.003 Y93.126 E1.96921 F378.000
G1 X106.763 Y92.854 E1.99210
G1 X106.594 Y92.533 E2.01499
G1 X106.507 Y92.181 E2.03788
G1 X106.507 Y91.819 E2.06077
G1 X106.594 Y91.467 E2.08366
G1 X106.763 Y91.146 E2.10655
G1 X107.003 Y90.874 E2.12944
G1 X107.301 Y90.669 E2.15233
G1 X107.640 Y90.540 E2.17522
G1 X107.916 Y90.507 E2.19275
G1 X108.000 Y90.496 E2.19811 F378.000
G1 X108.360 Y90.540 E2.22100
G1 X108.699 Y90.669 E2.24389
G1 X108.997 Y90.874 E2.26678
G1 X109.237 Y91.146 E2.28967
G1 X109.406 Y91.467 E2.31256
G1 X109.493 Y91.819 E2.33545
G1 X109.493 Y92.181 E2.35834
G1 X109.406 Y92.533 E2.38123
G1 X109.237 Y92.854 E2.40412
G1 X108.997 Y93.126 E2.42701
G1 X108.699 Y93.331 E2.44990
G1 X108.360 Y93.460 E2.47279
G1 X108.000 Y93.504 E2.49568
G1 X107.640 Y93.460 E2.51857
G1 X107.371 Y93.358 E2.53672
G1 F1800.000 E1.53672
G92 E0
G1 X107.912 Y90.422 F7800.000
G1 X108.000 Y105.597 F7800.000
G1 E1.00000 F1800.000
G1 X108.383 Y105.644 E1.02438 F540.000
G1 X108.575 Y105.667 E1.03658 F540.000
G1 X109.117 Y105.872 E1.07316
G1 X109.593 Y106.201 E1.10974
G1 X109.978 Y106.635 E1.14632
G1 X110.247 Y107.148 E1.18290
G1 X110.385 Y107.710 E1.21948
G1 X110.385 Y108.290 E1.25605
G1 X110.247 Y108.852 E1.29263
G1 X110.067 Y109.194 E1.31701
G1 X109.978 Y109.365 E1.32921
G1 X109.593 Y109.799 E1.36579
G1 X109.117 Y110.128 E1.40237
G1 X108.575 Y110.333 E1.43895
G1 X108.000 Y110.403 E1.47553
G1 X107.425 Y110.333 E1.51211
G1 X106.883 Y110.128 E1.54868
G1 X106.407 Y109.799 E1.58527
G1 X106.022 Y109.365 E1.62185
G1 X105.753 Y108.852 E1.65842
G1 X105.615 Y108.290 E1.69500
G1 X105.615 Y107.710 E1.73158
G1 X105.753 Y107.148 E1.76816
G1 X106.022 Y106.635 E1.80474
G1 X106.407 Y106.201 E1.84132
G1 X106.883 Y105.872 E1.87790
G1 X107.425 Y105.667 E1.91448
G1 X107.926 Y105.606 E1.94632
G1 X108.000 Y106.496 F7800.000
G1 X108.360 Y106.540 E1.96921 F378.000
G1 X108.699 Y106.669 E1.99210
G1 X108.997 Y106.874 E2.01499
G1 X109.237 Y107.146 E2.03788
G1 X109.406 Y107.467 E2.06077
G1 X109.493 Y107.819 E2.08366
G1 X109.493 Y108.181 E2.10655
G1 X109.426 Y108.451 E2.12408
G1 X109.406 Y108.533 E2.12944
G1 X109.237 Y108.854 E2.15233
G1 X108.997 Y109.126 E2.17522
G1 X108.699 Y109.331 E2.19811
